X:1
T:Lord Randal
M:3/4
L:1/4
K:C
 G| AA/2-A/2A/2-A/2| G E D| E G E| D2 G| AA/2-A/2d/2-c/2| A G G| cd/2-c/2A/2-G/2|\
 A2 G| A Ad/2-c/2| A G G/2G/2| G c B| A2 A/2G/2| E DD/2-C/2| A,2 D/2D/2|\
 G G E| D2||
